Numix/16/status/indicator-keyboard-Wo.svg

<?xml version="1.0" encoding="UTF-8" standalone="no"?>
<svg
   xmlns:dc="http://purl.org/dc/elements/1.1/"
   xmlns:cc="http://creativecommons.org/ns#"
   xmlns:rdf="http://www.w3.org/1999/02/22-rdf-syntax-ns#"
   xmlns:svg="http://www.w3.org/2000/svg"
   xmlns="http://www.w3.org/2000/svg"
   xmlns:sodipodi="http://sodipodi.sourceforge.net/DTD/sodipodi-0.dtd"
   xmlns:inkscape="http://www.inkscape.org/namespaces/inkscape"
   viewBox="0 0 16 16"
   id="svg2"
   version="1.1"
   inkscape:version="0.91 r13725"
   sodipodi:docname="indicator-keyboard-Wo.svg">
  <metadata
     id="metadata13">
    <rdf:RDF>
      <cc:Work
         rdf:about="">
        <dc:format>image/svg+xml</dc:format>
        <dc:type
           rdf:resource="http://purl.org/dc/dcmitype/StillImage" />
      </cc:Work>
    </rdf:RDF>
  </metadata>
  <defs
     id="defs11" />
  <sodipodi:namedview
     pagecolor="#ffffff"
     bordercolor="#666666"
     borderopacity="1"
     objecttolerance="10"
     gridtolerance="10"
     guidetolerance="10"
     inkscape:pageopacity="0"
     inkscape:pageshadow="2"
     inkscape:window-width="640"
     inkscape:window-height="480"
     id="namedview9"
     showgrid="false"
     inkscape:zoom="14.75"
     inkscape:cx="8"
     inkscape:cy="8"
     inkscape:window-x="65"
     inkscape:window-y="24"
     inkscape:window-maximized="0"
     inkscape:current-layer="svg2" />
  <path
     style="fill:#ececec;fill-opacity:1"
     d="M 1.5996094 0 C 0.71320937 2.9605947e-16 0 0.71320937 0 1.5996094 L 0 14.400391 C 2.9605947e-16 15.286791 0.71320937 16 1.5996094 16 L 14.400391 16 C 15.286791 16 16 15.286791 16 14.400391 L 16 1.5996094 C 16 0.71320937 15.286791 0 14.400391 0 L 1.5996094 0 z M 1.6953125 4.828125 L 2.3242188 4.828125 C 2.4142188 5.356125 2.5075156 5.8747656 2.6035156 6.3847656 C 2.6995156 6.8887656 2.7983906 7.3775625 2.9003906 7.8515625 C 3.0083906 8.3255625 3.1166094 8.7751719 3.2246094 9.2011719 C 3.3386094 9.6211719 3.4505937 10.011094 3.5585938 10.371094 C 3.8165937 9.7050937 4.0927188 8.9849375 4.3867188 8.2109375 C 4.6807187 7.4309375 4.9717656 6.5577969 5.2597656 5.5917969 L 5.7890625 5.5917969 C 6.0770625 6.5577969 6.3662969 7.4347031 6.6542969 8.2207031 C 6.9482969 9.0007031 7.2337656 9.7170937 7.5097656 10.371094 C 7.7197656 9.6630937 7.9249063 8.8291406 8.1289062 7.8691406 C 8.3389062 6.9091406 8.5404219 5.896125 8.7324219 4.828125 L 9.3359375 4.828125 C 9.2279375 5.470125 9.1159531 6.0727188 9.0019531 6.6367188 C 8.8939531 7.1947188 8.7801563 7.7282812 8.6601562 8.2382812 C 8.5401563 8.7422812 8.4152031 9.2292656 8.2832031 9.6972656 C 8.1512031 10.159266 8.0075625 10.614453 7.8515625 11.064453 L 7.1933594 11.064453 L 6.7617188 10.039062 C 6.6237188 9.6970624 6.4856563 9.3463281 6.3476562 8.9863281 C 6.2096563 8.6203281 6.0715937 8.2377969 5.9335938 7.8417969 C 5.7955938 7.4457969 5.6557187 7.0260313 5.5117188 6.5820312 C 5.3677187 7.0260313 5.222125 7.4457969 5.078125 7.8417969 C 4.940125 8.2377969 4.8020625 8.6203281 4.6640625 8.9863281 C 4.5260625 9.3463281 4.3861875 9.6970624 4.2421875 10.039062 C 4.1041875 10.381063 3.9623594 10.722453 3.8183594 11.064453 L 3.1699219 11.064453 C 3.0079219 10.614453 2.8587031 10.159266 2.7207031 9.6972656 C 2.5887031 9.2292656 2.46375 8.7422812 2.34375 8.2382812 C 2.22975 7.7282813 2.1177656 7.1947187 2.0097656 6.6367188 C 1.9077656 6.0727187 1.8033125 5.470125 1.6953125 4.828125 z M 12.181641 6.3027344 C 12.493641 6.3027344 12.779109 6.364375 13.037109 6.484375 C 13.295109 6.598375 13.517125 6.7625156 13.703125 6.9785156 C 13.895125 7.1885156 14.040578 7.4441406 14.142578 7.7441406 C 14.250578 8.0441406 14.304687 8.3761875 14.304688 8.7421875 C 14.304688 9.1081875 14.250578 9.4421875 14.142578 9.7421875 C 14.040578 10.042188 13.895125 10.295859 13.703125 10.505859 C 13.517125 10.715859 13.295109 10.881953 13.037109 11.001953 C 12.779109 11.115953 12.493641 11.171875 12.181641 11.171875 C 11.869641 11.171875 11.584172 11.115953 11.326172 11.001953 C 11.068172 10.881953 10.842391 10.715859 10.650391 10.505859 C 10.464391 10.295859 10.318937 10.042188 10.210938 9.7421875 C 10.108937 9.4421875 10.056641 9.1081875 10.056641 8.7421875 C 10.056641 8.3761875 10.108938 8.0441406 10.210938 7.7441406 C 10.318937 7.4441406 10.464391 7.1885156 10.650391 6.9785156 C 10.842391 6.7625156 11.068172 6.598375 11.326172 6.484375 C 11.584172 6.364375 11.869641 6.3027344 12.181641 6.3027344 z M 12.181641 6.8339844 C 11.719641 6.8339844 11.353984 7.0094219 11.083984 7.3574219 C 10.813984 7.6994219 10.677734 8.1601875 10.677734 8.7421875 C 10.677734 9.3241875 10.813984 9.7869062 11.083984 10.128906 C 11.353984 10.470906 11.719641 10.640625 12.181641 10.640625 C 12.643641 10.640625 13.009297 10.470906 13.279297 10.128906 C 13.549297 9.7869062 13.683594 9.3241875 13.683594 8.7421875 C 13.683594 8.1601875 13.549297 7.6994219 13.279297 7.3574219 C 13.009297 7.0094219 12.643641 6.8339844 12.181641 6.8339844 z "
     id="path4" />
</svg>

<svg xmlns="http://www.w3.org/2000/svg" viewBox="0 0 16 16">
 <path d="m 1.6 0 c -0.886 0 -1.6 0.713 -1.6 1.6 l 0 12.801 c 0 0.886 0.713 1.6 1.6 1.6 l 12.801 0 c 0.886 0 1.6 -0.713 1.6 -1.6 l 0 -12.801 c 0 -0.886 -0.713 -1.6 -1.6 -1.6 l -12.801 0 z m 0.096 4.828 l 0.629 0 c 0.09 0.528 0.183 1.047 0.279 1.557 c 0.096 0.504 0.195 0.993 0.297 1.467 c 0.108 0.474 0.216 0.924 0.324 1.35 c 0.114 0.42 0.226 0.81 0.334 1.17 c 0.258 -0.666 0.534 -1.386 0.828 -2.16 c 0.294 -0.78 0.585 -1.653 0.873 -2.619 l 0.529 0 c 0.288 0.966 0.577 1.843 0.865 2.629 c 0.294 0.78 0.579 1.496 0.855 2.15 c 0.21 -0.708 0.415 -1.542 0.619 -2.502 c 0.21 -0.96 0.412 -1.973 0.604 -3.041 l 0.604 0 c -0.108 0.642 -0.22 1.245 -0.334 1.809 c -0.108 0.558 -0.222 1.092 -0.342 1.602 c -0.12 0.504 -0.245 0.991 -0.377 1.459 c -0.132 0.462 -0.276 0.917 -0.432 1.367 l -0.658 0 l -0.432 -1.025 c -0.138 -0.342 -0.276 -0.693 -0.414 -1.053 c -0.138 -0.366 -0.276 -0.749 -0.414 -1.145 c -0.138 -0.396 -0.278 -0.816 -0.422 -1.26 c -0.144 0.444 -0.29 0.864 -0.434 1.26 c -0.138 0.396 -0.276 0.779 -0.414 1.145 c -0.138 0.36 -0.278 0.711 -0.422 1.053 c -0.138 0.342 -0.28 0.683 -0.424 1.025 l -0.648 0 c -0.162 -0.45 -0.311 -0.905 -0.449 -1.367 c -0.132 -0.468 -0.257 -0.955 -0.377 -1.459 c -0.114 -0.51 -0.226 -1.044 -0.334 -1.602 c -0.102 -0.564 -0.206 -1.167 -0.314 -1.809 z m 10.486 1.475 c 0.312 0 0.597 0.062 0.855 0.182 c 0.258 0.114 0.48 0.278 0.666 0.494 c 0.192 0.21 0.337 0.466 0.439 0.766 c 0.108 0.3 0.162 0.632 0.162 0.998 c 0 0.366 -0.054 0.7 -0.162 1 c -0.102 0.3 -0.247 0.554 -0.439 0.764 c -0.186 0.21 -0.408 0.376 -0.666 0.496 c -0.258 0.114 -0.543 0.17 -0.855 0.17 c -0.312 0 -0.597 -0.056 -0.855 -0.17 c -0.258 -0.12 -0.484 -0.286 -0.676 -0.496 c -0.186 -0.21 -0.331 -0.464 -0.439 -0.764 c -0.102 -0.3 -0.154 -0.634 -0.154 -1 c 0 -0.366 0.052 -0.698 0.154 -0.998 c 0.108 -0.3 0.253 -0.556 0.439 -0.766 c 0.192 -0.216 0.418 -0.38 0.676 -0.494 c 0.258 -0.12 0.543 -0.182 0.855 -0.182 z m 0 0.531 c -0.462 0 -0.828 0.175 -1.098 0.523 c -0.27 0.342 -0.406 0.803 -0.406 1.385 c 0 0.582 0.136 1.045 0.406 1.387 c 0.27 0.342 0.636 0.512 1.098 0.512 c 0.462 0 0.828 -0.17 1.098 -0.512 c 0.27 -0.342 0.404 -0.805 0.404 -1.387 c 0 -0.582 -0.134 -1.043 -0.404 -1.385 c -0.27 -0.348 -0.636 -0.523 -1.098 -0.523 z" style="fill:#ececec;fill-opacity:1"/>
</svg>
